X:1
T:Reverend A.W.R. MacKenzie's Revenge
M:C|
L:1/8
Q:80
C:Bob Worrall
S:Hornpipe
K:HP
|: a | \
e3/4{g}e/4{A}e3/4d/4e3/4A/4{g}A3/4d/4 | \
e3/4{g}e/4{A}e3/4d/4{g}e3/4f/4{a}g3/4e/4 | \
{g}d3/4{e}d/4{c}d3/4B/4{g}d3/4B/4{g}G3/4{d}B/4 |
{gdedc}d{g}G3/4{d}B/4{gde}d3/4B/4{g}f3/4d/4e3/4{g}e/4{A}e3/4d/4e3/4A/4{g
}A3/4d/4 | \
e3/4{g}e/4{A}e3/4d/4{g}e3/4f/4{a}g3/4e/4 | \
{gdedc}d{g}G3/4{d}B/4{gde}d3/4B/4g3/4B/4 |
{gdedc}dg3/4B/4{gAGAG}A :: \
d | \
{g}e3/4a/4{g}a3/4g/4a3/4e/4{g}A3/4{d}B/4 | \
{eAfA}ea3/4g/4a3/4e/4{g}A3/4e/4 |
{g}d3/4{e}d/4{c}d3/4B/4{g}d3/4B/4{g}G3/4{d}B/4 | \
{gdedc}d{g}G3/4{d}B/4{gde}d3/4B/4{g}f3/4d/4|1 {g}e3/4a/4{g}a3/4g/4a3/4e/
4{g}A3/4{d}B/4 | \
{eAfA}ea3/4g/4a3/4e/4{g}A3/4e/4 |
{gdedc}d{g}G3/4{d}B/4{gde}d3/4B/4g3/4B/4 | \
{gdedc}dg3/4B/4{gAGAG}A:|2
e3/4{g}e/4{A}e3/4d/4e3/4A/4{g}A3/4d/4 |
{eAfA}ea3/4g/4a3/4e/4{g}A3/4e/4 | \
{gdedc}d{g}G3/4{d}B/4{gde}d3/4B/4g3/4B/4 | \
{gdedc}dg3/4B/4{gAGAG}A|] |:
{g}B | \
{eAfA}e{g}A3/4d/4{eAfA}e{g}A3/4{d}B/4 | \
{eAfA}e{g}e3/4d/4e3/4A/4{g}A3/4e/4 | \
{g}d3/4{e}d/4{c}d3/4B/4{g}d3/4B/4{g}G3/4{d}B/4 |
{gdedc}d{g}G3/4{d}B/4{gde}d3/4B/4{g}f3/4d/4{eAfA}e{g}A3/4{d}B/4{eAfA}e{g
}A3/4d/4 | \
{eAfA}e{g}e3/4d/4e3/4A/4{g}A3/4e/4 | \
{gdedc}d{g}G3/4{d}B/4{gde}d3/4B/4g3/4B/4 |
{gdedc}dg3/4B/4{gAGAG}A :: \
{g}((3e/2f/2g/2) | \
a{GdG}a3/4g/4a3/4e/4{g}A3/4{d}B/4 |
{eAfA}ea3/4g/4a3/4e/4{g}A3/4e/4 | \
{a}g{GdG}g3/4a/4g3/4e/4{g}d3/4B/4 | \
{g}((3e/2f/2g/2){a}g3/4a/4{f}g|1 {a}((3e/2f/2g/2)|1 a{GdG}a3/4g/4a3/4e/4
{g}A3/4{d}B/4 |
{eAfA}ea3/4g/4a3/4e/4{g}A3/4e/4 | \
{gdedc}d{g}G3/4{d}B/4{gde}d3/4B/4g3/4B/4 | \
{gdedc}dg3/4B/4{gAGAG}A:|2
e3/4{g}e/4{A}e3/4d/4e3/4A/4{g}A3/4d/4 | \
{eAfA}ea3/4g/4a3/4e/4{g}A3/4e/4 | \
{gdedc}d{g}G3/4{d}B/4{gde}d3/4B/4g3/4B/4 |
{gdedc}dg3/4B/4{gAGAG}A|]
